X:51
T: DAS VOLK STEHT AUF DER STURM BRICHT LOS
N: B0062
O: Europa, Mitteleuropa, Deutschland
R: Kriegs -, Sieges -, Soldaten - Lied
M: 4/4
L: 1/16
K: C
G,4 | C4G,4E,4G,4 | C4D4E4z2
E2 | E4D3EF4E4 | E2D2D2D2D4z4 |
D4D3DG4D4 | B,4D3DB,4G,4 |
D4D3DG4D4 | B,4D3DG2F2E2D2 |
C4C3B,D4D3D | E4G3ED4C3D | E4G2E2D4
C2E2 | G6F2E4E4 | D2C2D2E2C4
C2E2 | G6F2E4E4 | D2C2D2E2C4
G4 | c6G2E4C4 | G6G2G4
E3E | E4E3EE4E3E | E3EG3GG8- | G8z4

@@@ Tune index: 1854
